packages/icons/src/svg/tmc-positive.svg

<svg xmlns="http://www.w3.org/2000/svg" viewBox="0 0 16 16">
  <g fill-rule="evenodd">
    <path d="M7.9732,8.5019 C7.6892,8.5019 7.4592,8.2719 7.4592,7.9869 C7.4592,7.7029 7.6892,7.4739 7.9732,7.4739 C8.2572,7.4739 8.4882,7.7029 8.4882,7.9869 C8.4882,8.2719 8.2572,8.5019 7.9732,8.5019 M7.9732,6.8919 C7.3682,6.8919 6.8762,7.3809 6.8762,7.9859 C6.8762,8.5929 7.3682,9.0839 7.9732,9.0839 C8.5782,9.0839 9.0702,8.5929 9.0702,7.9859 C9.0702,7.3809 8.5782,6.8919 7.9732,6.8919"/>
    <path fill-rule="nonzero" d="M9.6646,9.0107 C9.5216,9.2497 9.3316,9.4567 9.1036,9.6157 L9.3326,10.5707 L8.6866,9.8407 C8.4636,9.9287 8.2216,9.9787 7.9676,9.9787 C7.9186,9.9787 7.8706,9.9747 7.8226,9.9707 L6.4356,12.2887 L6.9586,9.6997 L6.9586,9.6987 C6.6886,9.5387 6.4616,9.3167 6.2936,9.0517 L5.3256,9.2837 L6.0866,8.6127 C6.0236,8.4187 5.9886,8.2127 5.9886,7.9987 C5.9886,7.9497 5.9926,7.9027 5.9966,7.8547 L4.4596,6.8967 L6.2696,6.9867 C6.4006,6.7667 6.5736,6.5747 6.7776,6.4207 L6.5396,5.4307 L7.1986,6.1747 C7.4356,6.0747 7.6946,6.0197 7.9676,6.0197 C8.0176,6.0197 8.0656,6.0237 8.1146,6.0277 L9.3706,3.7097 L8.9796,6.3007 C9.2316,6.4517 9.4486,6.6567 9.6116,6.9007 L10.5606,6.6737 L9.8246,7.3237 C9.9016,7.5337 9.9456,7.7617 9.9456,7.9987 C9.9456,8.0467 9.9416,8.0937 9.9386,8.1407 L11.4736,9.1147 L9.6646,9.0107 Z M13.4566,8.2257 L12.4446,8.2337 L12.4446,7.7967 L13.4576,7.7897 C13.5186,7.5597 13.6736,7.3667 13.8796,7.2577 C13.7166,5.9717 13.1426,4.8127 12.2936,3.9157 L11.7196,4.4897 L11.4106,4.1817 L11.9826,3.6097 C11.1006,2.8027 9.9756,2.2587 8.7316,2.0977 C8.6226,2.3107 8.4276,2.4717 8.1916,2.5337 L8.1916,3.6017 L7.7556,3.6017 L7.7556,2.5337 C7.5186,2.4717 7.3216,2.3097 7.2136,2.0957 C5.9356,2.2557 4.7826,2.8217 3.8876,3.6597 L4.4786,4.2517 L4.1706,4.5607 L3.5806,3.9697 C2.7646,4.8527 2.2126,5.9827 2.0476,7.2337 C2.2776,7.3367 2.4526,7.5387 2.5186,7.7847 L3.5316,7.7847 L3.5316,8.2207 L2.5226,8.2207 C2.4576,8.4737 2.2806,8.6807 2.0476,8.7857 C2.2086,10.0287 2.7516,11.1527 3.5586,12.0337 L4.1786,11.4137 L4.4866,11.7227 L3.8646,12.3447 C4.7606,13.1927 5.9186,13.7667 7.2026,13.9307 C7.3096,13.7037 7.5116,13.5327 7.7586,13.4687 L7.7586,12.3647 L8.1946,12.3647 L8.1946,13.4707 C8.4366,13.5347 8.6366,13.7047 8.7416,13.9277 C9.9936,13.7637 11.1246,13.2107 12.0086,12.3937 L11.3996,11.7847 L11.7086,11.4767 L12.3176,12.0857 C13.1556,11.1907 13.7206,10.0377 13.8806,8.7617 C13.6736,8.6517 13.5186,8.4577 13.4566,8.2257 L13.4566,8.2257 Z"/>
    <path d="M14.4195,8.8485 C14.0445,11.7735 11.7305,14.0905 8.8055,14.4685 C8.7245,14.8545 8.3825,15.1435 7.9735,15.1435 C7.5645,15.1435 7.2235,14.8555 7.1415,14.4715 C4.2025,14.1015 1.8755,11.7755 1.5035,8.8375 C1.1275,8.7495 0.8475,8.4115 0.8475,8.0095 C0.8475,7.6055 1.1285,7.2685 1.5045,7.1805 C1.8795,4.2475 4.2035,1.9265 7.1365,1.5555 C7.2105,1.1605 7.5565,0.8605 7.9735,0.8605 C8.3905,0.8605 8.7375,1.1615 8.8105,1.5585 C11.7295,1.9375 14.0405,4.2495 14.4185,7.1695 C14.8225,7.2365 15.1315,7.5855 15.1315,8.0095 C15.1315,8.4315 14.8225,8.7825 14.4195,8.8485 M7.9995,-0.0005 C3.5815,-0.0005 0.0005,3.5805 0.0005,7.9985 C0.0005,12.4165 3.5815,15.9975 7.9995,15.9975 C12.4165,15.9975 15.9975,12.4165 15.9975,7.9985 C15.9975,3.5805 12.4165,-0.0005 7.9995,-0.0005"/>
  </g>
</svg>

<svg xmlns="http://www.w3.org/2000/svg" viewBox="0 0 16 16">
	<g fill-rule="evenodd">
		<path d="M7.973 8.502a.514.514 0 1 1 0-1.028.514.514 0 0 1 0 1.028m0-1.61a1.096 1.096 0 1 0 0 2.192 1.096 1.096 0 1 0 0-2.192"/>
		<path fill-rule="nonzero" d="M9.665 9.01a1.966 1.966 0 0 1-.561.606l.229.955-.646-.73a1.953 1.953 0 0 1-.72.138c-.048 0-.096-.004-.144-.008l-1.387 2.318.523-2.59a1.988 1.988 0 0 1-.665-.647l-.968.232.76-.671a1.983 1.983 0 0 1-.097-.614c0-.05.004-.096.008-.144L4.46 6.897l1.81.09c.13-.22.304-.412.508-.566l-.238-.99.659.744c.237-.1.496-.155.769-.155.05 0 .098.004.147.008L9.37 3.71 8.98 6.3c.252.152.469.357.632.6l.949-.226-.736.65c.077.21.12.438.12.675 0 .048-.003.095-.006.142l1.535.974-1.81-.104zm3.792-.784l-1.012.008v-.437l1.013-.007a.85.85 0 0 1 .422-.532 5.946 5.946 0 0 0-1.586-3.342l-.574.574-.31-.308.573-.572a5.94 5.94 0 0 0-3.251-1.512.85.85 0 0 1-.54.436v1.068h-.436V2.534a.85.85 0 0 1-.542-.438A5.943 5.943 0 0 0 3.888 3.66l.59.592-.307.309-.59-.591a5.952 5.952 0 0 0-1.533 3.264c.23.103.405.305.47.55h1.014v.437h-1.01a.853.853 0 0 1-.474.565 5.93 5.93 0 0 0 1.51 3.248l.62-.62.309.309-.622.622a5.95 5.95 0 0 0 3.338 1.586.851.851 0 0 1 .556-.462v-1.104h.436v1.106a.846.846 0 0 1 .547.457 5.948 5.948 0 0 0 3.267-1.534l-.61-.61.31-.307.609.609a5.943 5.943 0 0 0 1.563-3.324.857.857 0 0 1-.424-.536z"/>
		<path d="M14.42 8.848a6.512 6.512 0 0 1-5.614 5.62.85.85 0 0 1-1.664.004 6.513 6.513 0 0 1-5.639-5.634.851.851 0 0 1 .002-1.657 6.512 6.512 0 0 1 5.631-5.625.852.852 0 0 1 1.674.002 6.511 6.511 0 0 1 5.608 5.612.852.852 0 0 1 .002 1.678M8 0a7.999 7.999 0 0 0-8 8 7.999 7.999 0 1 0 15.997 0A7.998 7.998 0 0 0 8-.002"/>
	</g>
</svg>
